src/icons/archive.svg

<svg width="16" height="16" xmlns="http://www.w3.org/2000/svg"><path fill-rule="evenodd" clip-rule="evenodd" d="M14.5 1h-13l-.5.5v3l.5.5H2v8.5l.5.5h11l.5-.5V5h.5l.5-.5v-3l-.5-.5zm-1 3H2V2h12v2h-.5zM3 13V5h10v8H3zm8-6H5v1h6V7z"/></svg>

<svg width="16" height="16" viewBox="0 0 16 16" fill="none" xmlns="http://www.w3.org/2000/svg">
<path fill-rule="evenodd" clip-rule="evenodd" d="M14.5 1H1.5L1 1.5V4.5L1.5 5H2V13.5L2.5 14H13.5L14 13.5V5H14.5L15 4.5V1.5L14.5 1ZM13.5 4H2.5H2V2H14V4H13.5ZM3 13V5H13V13H3ZM11 7H5V8H11V7Z" fill="white"/>
</svg>
